icons/svgs/ticket-outline.svg

<svg width="24" height="24" viewBox="0 0 24 24" fill="none" xmlns="http://www.w3.org/2000/svg">
<path d="M3.75 4.5H21.25C22.6172 4.5 23.75 5.63281 23.75 7V9.38281C23.75 9.77344 23.4766 10.125 23.125 10.2422C22.3828 10.5156 21.875 11.2188 21.875 12C21.875 12.8203 22.3828 13.5234 23.125 13.7969C23.4766 13.9141 23.75 14.2656 23.75 14.6562V17C23.75 18.4062 22.6172 19.5 21.25 19.5H3.75C2.34375 19.5 1.25 18.4062 1.25 17V14.6562C1.25 14.2656 1.48438 13.9141 1.875 13.7969C2.57812 13.5234 3.125 12.8203 3.125 12C3.125 11.2188 2.57812 10.5156 1.875 10.2422C1.48438 10.125 1.25 9.77344 1.25 9.38281V7C1.25 5.63281 2.34375 4.5 3.75 4.5ZM3.125 7V8.75781C4.21875 9.42188 5 10.6328 5 12C5 13.4062 4.21875 14.6172 3.125 15.2812V17C3.125 17.3516 3.39844 17.625 3.75 17.625H21.25C21.5625 17.625 21.875 17.3516 21.875 17V15.2812C20.7422 14.6172 20 13.4062 20 12C20 10.6328 20.7422 9.42188 21.875 8.75781V7C21.875 6.6875 21.5625 6.375 21.25 6.375H3.75C3.39844 6.375 3.125 6.6875 3.125 7ZM16.875 13.875V10.125H8.125V13.875H16.875ZM6.25 9.5C6.25 8.83594 6.79688 8.25 7.5 8.25H17.5C18.1641 8.25 18.75 8.83594 18.75 9.5V14.5C18.75 15.2031 18.1641 15.75 17.5 15.75H7.5C6.79688 15.75 6.25 15.2031 6.25 14.5V9.5Z" fill="black"/>
</svg>

<svg xmlns="http://www.w3.org/2000/svg" width="24" height="24" fill="currentColor" class="icon-ticket-outline" viewBox="0 0 24 24">
  <mask id="a" width="23" height="16" x="1" y="4" maskUnits="userSpaceOnUse" style="mask-type:alpha">
    <path d="M3.75 4.5h17.5c1.367 0 2.5 1.133 2.5 2.5v2.383a.93.93 0 0 1-.625.86c-.742.273-1.25.976-1.25 1.757 0 .82.508 1.523 1.25 1.797a.93.93 0 0 1 .625.86V17c0 1.406-1.133 2.5-2.5 2.5H3.75a2.47 2.47 0 0 1-2.5-2.5v-2.344a.88.88 0 0 1 .625-.86c.703-.273 1.25-.976 1.25-1.796 0-.781-.547-1.484-1.25-1.758a.88.88 0 0 1-.625-.86V7c0-1.367 1.094-2.5 2.5-2.5M3.125 7v1.758C4.219 9.422 5 10.633 5 12c0 1.406-.781 2.617-1.875 3.281V17c0 .352.273.625.625.625h17.5a.64.64 0 0 0 .625-.625v-1.719A3.77 3.77 0 0 1 20 12c0-1.367.742-2.578 1.875-3.242V7c0-.312-.312-.625-.625-.625H3.75A.64.64 0 0 0 3.125 7m13.75 6.875v-3.75h-8.75v3.75zM6.25 9.5c0-.664.547-1.25 1.25-1.25h10c.664 0 1.25.586 1.25 1.25v5c0 .703-.586 1.25-1.25 1.25h-10c-.703 0-1.25-.547-1.25-1.25z"/>
  </mask>
  <g mask="url(#a)">
    <path d="M0 0h24v24H0z"/>
  </g>
</svg>
